X: 302
T: Aunt May's Canadian Jig
R: jig
M: 6/8
L: 1/8
Q: 180
K: Dmaj
|: "D"A |f2 f f>ga | d2 d dcB | ABA AGF | "Em"E2E E2 A |"A7"e2 e efg | e2 d c2 B |
[1 ABA  ABA | "D"F3 "A7"F2 :|[2 ABA ABc | "D"d3 d2 |||: z |"D"ABA faf | e2 d c2 B | AFA "Bm"BcB | 
"Em"A2 G G3 |"Em"GFG "A"efe | d2 c c2 B |[1 ABA  ABA | "D"F3 F2 :|[2 ABA ABc | "D"d3 d2 |]

